assets/flags/GE.svg

<svg width="21" height="15" xmlns="http://www.w3.org/2000/svg"><defs><linearGradient x1="50%" y1="0%" x2="50%" y2="100%" id="a"><stop stop-color="#FFF" offset="0%"/><stop stop-color="#F0F0F0" offset="100%"/></linearGradient><linearGradient x1="50%" y1="0%" x2="50%" y2="100%" id="b"><stop stop-color="#FF2B37" offset="0%"/><stop stop-color="#FD0D1B" offset="100%"/></linearGradient></defs><g fill="none" fill-rule="evenodd"><path fill="url(#a)" d="M0 0h21v15H0z"/><path d="M9 6H0v3h9v6h3V9h9V6h-9V0H9v6z" fill="url(#b)"/><path d="M16.2 2.7 16 1.5h1l-.2 1.2 1.2-.2v1l-1.2-.2.2 1.2h-1l.2-1.2-1.2.2v-1l1.2.2zM4.2 2.7 4 1.5h1l-.2 1.2L6 2.5v1l-1.2-.2.2 1.2H4l.2-1.2-1.2.2v-1l1.2.2zM4.2 11.7 4 10.5h1l-.2 1.2 1.2-.2v1l-1.2-.2.2 1.2H4l.2-1.2-1.2.2v-1l1.2.2zM16.2 11.7l-.2-1.2h1l-.2 1.2 1.2-.2v1l-1.2-.2.2 1.2h-1l.2-1.2-1.2.2v-1l1.2.2z" fill="#FD0D1B"/></g></svg>

<?xml version="1.0" encoding="UTF-8"?>
<svg width="21px" height="15px" viewBox="0 0 21 15" version="1.1" xmlns="http://www.w3.org/2000/svg" xmlns:xlink="http://www.w3.org/1999/xlink">
    <!-- Generator: sketchtool 46 (44423) - http://www.bohemiancoding.com/sketch -->
    <title>GE</title>
    <desc>Created with sketchtool.</desc>
    <defs>
        <linearGradient x1="50%" y1="0%" x2="50%" y2="100%" id="linearGradient-1">
            <stop stop-color="#FFFFFF" offset="0%"></stop>
            <stop stop-color="#F0F0F0" offset="100%"></stop>
        </linearGradient>
        <linearGradient x1="50%" y1="0%" x2="50%" y2="100%" id="linearGradient-2">
            <stop stop-color="#FF2B37" offset="0%"></stop>
            <stop stop-color="#FD0D1B" offset="100%"></stop>
        </linearGradient>
    </defs>
    <g id="Symbols" stroke="none" stroke-width="1" fill="none" fill-rule="evenodd">
        <g id="GE">
            <rect id="FlagBackground" fill="url(#linearGradient-1)" x="0" y="0" width="21" height="15"></rect>
            <path d="M9,6 L0,6 L0,9 L9,9 L9,15 L12,15 L12,9 L21,9 L21,6 L12,6 L12,0 L9,0 L9,6 Z" id="Rectangle-2" fill="url(#linearGradient-2)"></path>
            <path d="M16.2,2.7 L16,1.5 L17,1.5 L16.8,2.7 L18,2.5 L18,3.5 L16.8,3.3 L17,4.5 L16,4.5 L16.2,3.3 L15,3.5 L15,2.5 L16.2,2.7 Z" id="Rectangle-742" fill="#FD0D1B"></path>
            <path d="M4.2,2.7 L4,1.5 L5,1.5 L4.8,2.7 L6,2.5 L6,3.5 L4.8,3.3 L5,4.5 L4,4.5 L4.2,3.3 L3,3.5 L3,2.5 L4.2,2.7 Z" id="Rectangle-742" fill="#FD0D1B"></path>
            <path d="M4.2,11.7 L4,10.5 L5,10.5 L4.8,11.7 L6,11.5 L6,12.5 L4.8,12.3 L5,13.5 L4,13.5 L4.2,12.3 L3,12.5 L3,11.5 L4.2,11.7 Z" id="Rectangle-742" fill="#FD0D1B"></path>
            <path d="M16.2,11.7 L16,10.5 L17,10.5 L16.8,11.7 L18,11.5 L18,12.5 L16.8,12.3 L17,13.5 L16,13.5 L16.2,12.3 L15,12.5 L15,11.5 L16.2,11.7 Z" id="Rectangle-742" fill="#FD0D1B"></path>
        </g>
    </g>
</svg>
